svg/sunny-filled-loop-to-moon-filled-transition.svg

<svg xmlns="http://www.w3.org/2000/svg" width="24" height="24" viewBox="0 0 24 24">
	<defs>
		<mask id="SVGKN9G9dDV">
			<path d="M12 2c5.52 0 10 4.48 10 10c0 5.52 -4.48 10 -10 10c-5.52 0 -10 -4.48 -10 -10c0 -5.52 4.48 -10 10 -10Z" fill="#fff">
				<animate attributeName="d" dur="0.4s" fill="freeze" values="M12 6c3.31 0 6 2.69 6 6c0 3.31 -2.69 6 -6 6c-3.31 0 -6 -2.69 -6 -6c0 -3.31 2.69 -6 6 -6Z;M12 2c5.52 0 10 4.48 10 10c0 5.52 -4.48 10 -10 10c-5.52 0 -10 -4.48 -10 -10c0 -5.52 4.48 -10 10 -10Z" />
				<set attributeName="opacity" to="0" begin="0.4s" fill="freeze" />
			</path>
			<path d="M18 -4c5.52 0 10 4.48 10 10c0 5.52 -4.48 10 -10 10c-5.52 0 -10 -4.48 -10 -10c0 -5.52 4.48 -10 10 -10Z" fill="#000">
				<animate attributeName="d" dur="0.4s" fill="freeze" values="M22 -4c3.31 0 6 2.69 6 6c0 3.31 -2.69 6 -6 6c-3.31 0 -6 -2.69 -6 -6c0 -3.31 2.69 -6 6 -6Z;M18 -4c5.52 0 10 4.48 10 10c0 5.52 -4.48 10 -10 10c-5.52 0 -10 -4.48 -10 -10c0 -5.52 4.48 -10 10 -10Z" />
				<set attributeName="opacity" to="0" begin="0.4s" fill="freeze" />
			</path>
		</mask>
	</defs>
	<path d="M12 21v1M21 12h1M12 3v-1M3 12h-1M18.5 18.5l0.5 0.5M18.5 5.5l0.5 -0.5M5.5 5.5l-0.5 -0.5M5.5 18.5l-0.5 0.5" stroke="currentColor" fill="none" stroke-width="2" stroke-linecap="round" stroke-linejoin="round">
		<animate attributeName="opacity" dur="0.4s" fill="freeze" values="1;0" />
	</path>
	<g fill="currentColor">
		<path d="M0 0h24v24H0z" mask="url(#SVGKN9G9dDV)" />
		<path d="M7 6c0 6.08 4.92 11 11 11c0.53 0 1.05 -0.04 1.56 -0.11c-1.61 2.47 -4.39 4.11 -7.56 4.11c-4.97 0 -9 -4.03 -9 -9c0 -3.17 1.64 -5.95 4.11 -7.56c-0.07 0.51 -0.11 1.03 -0.11 1.56Z" stroke="currentColor" stroke-width="2" stroke-linecap="round" stroke-linejoin="round" opacity="0">
			<set attributeName="opacity" to="1" begin="0.4s" fill="freeze" />
		</path>
		<path d="M15.22 6.03l2.53 -1.94l-3.19 -0.09l-1.06 -3l-1.06 3l-3.19 0.09l2.53 1.94l-0.91 3.06l2.63 -1.81l2.63 1.81l-0.91 -3.06Z" opacity="0">
			<animate attributeName="opacity" begin="0.4s" dur="0.4s" fill="freeze" to="1" />
		</path>
		<path d="M19.61 12.25l1.64 -1.25l-2.06 -0.05l-0.69 -1.95l-0.69 1.95l-2.06 0.05l1.64 1.25l-0.59 1.98l1.7 -1.17l1.7 1.17l-0.59 -1.98Z" opacity="0">
			<animate attributeName="opacity" begin="0.8s" dur="0.4s" fill="freeze" to="1" />
		</path>
	</g>
</svg>

<svg xmlns="http://www.w3.org/2000/svg" width="24" height="24" viewBox="0 0 24 24">
	<path d="M15.22 6.03L17.75 4.09L14.56 4L13.5 1L12.44 4L9.25 4.09L11.78 6.03L10.87 9.09L13.5 7.28L16.13 9.09L15.22 6.03Z" fill-opacity="0">
		<animate attributeName="fill-opacity" values="0;1" begin="0.6s" dur="0.4s" fill="freeze" />
	</path>
	<path d="M19.61 12.25L21.25 11L19.19 10.95L18.5 9L17.81 10.95L15.75 11L17.39 12.25L16.8 14.23L18.5 13.06L20.2 14.23L19.61 12.25Z" fill-opacity="0">
		<animate attributeName="fill-opacity" values="0;1" begin="1s" dur="0.4s" fill="freeze" />
	</path>
	<g fill="none" stroke="currentColor" stroke-width="2" stroke-linecap="round" stroke-linejoin="round">
		<g opacity="1">
			<path d="M12 21v1M21 12h1M12 3v-1M3 12h-1" stroke-dasharray="2" stroke-dashoffset="4">
				<animate attributeName="stroke-dashoffset" values="4;2" dur="0.2s" fill="freeze" />
			</path>
			<path d="M18.5 18.5l0.5 0.5M18.5 5.5l0.5 -0.5M5.5 5.5l-0.5 -0.5M5.5 18.5l-0.5 0.5" stroke-dasharray="2" stroke-dashoffset="4">
				<animate attributeName="stroke-dashoffset" values="4;2" begin="0.2s" dur="0.2s" fill="freeze" />
			</path>
			<set attributeName="opacity" to="0" begin="0.5s" fill="freeze" />
		</g>
		<path d="M7 6 C7 12.08 11.92 17 18 17 C18.53 17 19.05 16.96 19.56 16.89 C17.95 19.36 15.17 21 12 21 C7.03 21 3 16.97 3 12 C3 8.83 4.64 6.05 7.11 4.44 C7.04 4.95 7 5.47 7 6 Z" fill="currentColor" opacity="0">
			<set attributeName="opacity" to="1" begin="0.5s" fill="freeze" />
		</path>
	</g>
	<mask id="moon">
		<circle cx="12" cy="12" r="12" fill="#fff" />
		<circle cx="22" cy="2" r="3" fill="#fff">
			<animate attributeName="cx" values="22;18" begin="0.1s" dur="0.4s" fill="freeze" />
			<animate attributeName="cy" values="2;6" begin="0.1s" dur="0.4s" fill="freeze" />
			<animate attributeName="r" values="3;12" begin="0.1s" dur="0.4s" fill="freeze" />
		</circle>
		<circle cx="22" cy="2" r="1" fill="#000">
			<animate attributeName="cx" values="22;18" begin="0.1s" dur="0.4s" fill="freeze" />
			<animate attributeName="cy" values="2;6" begin="0.1s" dur="0.4s" fill="freeze" />
			<animate attributeName="r" values="1;10" begin="0.1s" dur="0.4s" fill="freeze" />
		</circle>
	</mask>
	<circle cx="12" cy="12" r="6" mask="url(#moon)" opacity="1">
		<animate attributeName="r" values="6;10" begin="0.1s" dur="0.4s" fill="freeze" />
		<set attributeName="opacity" to="0" begin="0.5s" fill="freeze" />
	</circle>
</svg>
